assets/icons/music/history-filled.svg

<?xml version="1.0" encoding="UTF-8" standalone="no"?>
<svg
   viewBox="0 0 24 24"
   height="24"
   id="svg7384"
   version="1.1"
   width="24"
   sodipodi:docname="history-filled.svg"
   inkscape:version="1.2 (1:1.2.1+202207142221+cd75a1ee6d)"
   xmlns:inkscape="http://www.inkscape.org/namespaces/inkscape"
   xmlns:sodipodi="http://sodipodi.sourceforge.net/DTD/sodipodi-0.dtd"
   xmlns="http://www.w3.org/2000/svg"
   xmlns:svg="http://www.w3.org/2000/svg"
   xmlns:rdf="http://www.w3.org/1999/02/22-rdf-syntax-ns#"
   xmlns:cc="http://creativecommons.org/ns#"
   xmlns:dc="http://purl.org/dc/elements/1.1/">
  <sodipodi:namedview
     id="namedview21"
     pagecolor="#ffffff"
     bordercolor="#666666"
     borderopacity="1.0"
     inkscape:pageshadow="2"
     inkscape:pageopacity="0.0"
     inkscape:pagecheckerboard="0"
     showgrid="true"
     width="24px"
     inkscape:zoom="32"
     inkscape:cx="13.21875"
     inkscape:cy="13.359375"
     inkscape:window-width="1920"
     inkscape:window-height="1016"
     inkscape:window-x="0"
     inkscape:window-y="0"
     inkscape:window-maximized="1"
     inkscape:current-layer="svg7384"
     inkscape:showpageshadow="2"
     inkscape:deskcolor="#d1d1d1">
    <inkscape:grid
       type="xygrid"
       id="grid837"
       dotted="false" />
    <inkscape:grid
       type="xygrid"
       id="grid839"
       dotted="true"
       spacingx="0.5"
       spacingy="0.5"
       empspacing="10" />
  </sodipodi:namedview>
  <metadata
     id="metadata20854">
    <rdf:RDF>
      <cc:Work
         rdf:about="">
        <dc:format>image/svg+xml</dc:format>
        <dc:type
           rdf:resource="http://purl.org/dc/dcmitype/StillImage" />
      </cc:Work>
    </rdf:RDF>
  </metadata>
  <defs
     id="defs7386">
    <linearGradient
       id="linearGradient5606"
       inkscape:swatch="solid">
      <stop
         id="stop5608"
         offset="0"
         style="stop-color:#000000;stop-opacity:1;" />
    </linearGradient>
    <linearGradient
       id="linearGradient4526"
       inkscape:swatch="solid">
      <stop
         id="stop4528"
         offset="0"
         style="stop-color:#ffffff;stop-opacity:1;" />
    </linearGradient>
    <linearGradient
       id="linearGradient3600-4"
       inkscape:swatch="gradient">
      <stop
         id="stop3602-7"
         offset="0"
         style="stop-color:#f4f4f4;stop-opacity:1" />
      <stop
         id="stop3604-6"
         offset="1"
         style="stop-color:#dbdbdb;stop-opacity:1" />
    </linearGradient>
  </defs>
  <path
     id="path1888"
     style="fill:#808080;fill-rule:evenodd;stroke:none;stroke-width:2;stroke-linecap:round;stroke-linejoin:round;stroke-dasharray:2, 4"
     d="m 16.5,11 a 5.5,5.5 0 0 0 -5.5,5.5 5.5,5.5 0 0 0 5.5,5.5 5.5,5.5 0 0 0 5.5,-5.5 5.5,5.5 0 0 0 -5.5,-5.5 z m -0.5,2 h 1 v 0.5 3.292969 l 1.353516,1.353515 0.353515,0.353516 -0.707031,0.707031 -0.353516,-0.353515 -1.646484,-1.646485 v -3.707031 z" />
  <path
     id="path2-3"
     style="line-height:normal;font-variant-ligatures:normal;font-variant-position:normal;font-variant-caps:normal;font-variant-numeric:normal;font-variant-alternates:normal;font-feature-settings:normal;text-indent:0;text-align:start;text-decoration-line:none;text-decoration-style:solid;text-decoration-color:#000000;text-transform:none;text-orientation:mixed;shape-padding:0;isolation:auto;mix-blend-mode:normal;fill:#808080"
     d="M 14.308594 2.0410156 C 14.240187 2.0436211 14.171585 2.0489277 14.103516 2.0566406 L 6.8945312 3.1816406 C 6.0815322 3.2636405 5.993 3.644188 6 4.1171875 L 6 13.636719 C 5.5870004 13.364719 5.1436869 13.171875 4.5546875 13.171875 C 3.7946883 13.171875 3.3423591 13.461704 3.0683594 13.845703 C 2.7943596 14.228703 2.703125 14.710985 2.703125 15.083984 C 2.703125 15.533984 2.8584066 16.013907 3.1914062 16.378906 C 3.525406 16.744906 4.0374382 17.001953 4.7734375 17.001953 C 5.6054367 17.001953 6.1885317 16.770406 6.5195312 16.316406 C 6.779531 15.959407 6.9245626 15.480578 6.9765625 14.892578 C 6.9835625 14.820578 6.9871875 14.746875 6.9921875 14.671875 C 6.9961875 14.611875 6.9950938 14.57 6.9960938 14.5 L 7 14.5 L 7 6.796875 C 7.022 6.1768756 7.5839844 6.0859375 7.5839844 6.0859375 L 13.4375 5.171875 C 13.998499 4.9998752 14 5.6953125 14 5.6953125 L 14 10.513672 A 6.5 6.5 0 0 1 15 10.191406 L 15 2.9316406 C 15.012 2.2456413 14.859672 2.0650156 14.513672 2.0410156 C 14.445213 2.0385056 14.377001 2.0384101 14.308594 2.0410156 z " />
</svg>

<svg height="24" width="24" xmlns="http://www.w3.org/2000/svg"><path style="fill:gray;stroke:none;stroke-width:2;stroke-linecap:round;stroke-linejoin:round;stroke-dasharray:2,4" d="M16.5 11a5.5 5.5 0 0 0-5.5 5.5 5.5 5.5 0 0 0 5.5 5.5 5.5 5.5 0 0 0 5.5-5.5 5.5 5.5 0 0 0-5.5-5.5zm-.5 2h1v3.793l1.354 1.353.353.354-.707.707-.354-.353L16 17.207V13.5z"/><path style="line-height:normal;font-variant-ligatures:normal;font-variant-position:normal;font-variant-caps:normal;font-variant-numeric:normal;font-variant-alternates:normal;font-feature-settings:normal;text-indent:0;text-align:start;text-decoration-line:none;text-decoration-style:solid;text-decoration-color:#000;text-transform:none;text-orientation:mixed;shape-padding:0;isolation:auto;mix-blend-mode:normal;fill:gray" d="M14.309 2.041a2.756 2.756 0 0 0-.205.016l-7.21 1.125c-.812.082-.901.462-.894.935v9.52c-.413-.272-.856-.465-1.445-.465-.76 0-1.213.29-1.487.674-.274.383-.365.865-.365 1.238 0 .45.155.93.488 1.295.334.366.846.623 1.582.623.832 0 1.416-.232 1.747-.686.26-.357.405-.835.457-1.423.007-.072.01-.146.015-.221.004-.06.003-.102.004-.172H7V6.797a.723.723 0 0 1 .584-.711l5.854-.914c.56-.172.562.523.562.523v4.819a6.5 6.5 0 0 1 1-.323v-7.26c.012-.685-.14-.866-.486-.89a2.741 2.741 0 0 0-.205 0z"/></svg>
